src/images/3.svg

<svg width="30" height="30" viewBox="0 0 30 30" fill="none" xmlns="http://www.w3.org/2000/svg">
<path d="M26.6667 0H3.33333C1.48333 0 0 1.5 0 3.33333V26.6667C0 28.5 1.48333 30 3.33333 30H26.6667C28.5 30 30 28.5 30 26.6667V3.33333C30 1.5 28.5 0 26.6667 0ZM13.3333 20H10.8333V16.6667H7.5V20H5V10H7.5V14.1667H10.8333V10H13.3333V20ZM16.6667 10H23.3333C24.25 10 25 10.75 25 11.6667V18.3333C25 19.25 24.25 20 23.3333 20H16.6667V10ZM19.1667 17.5H22.5V12.5H19.1667V17.5Z" fill="white"/>
</svg>

<svg width="30" height="30" fill="none" xmlns="http://www.w3.org/2000/svg"><path d="M26.667 0H3.333C1.483 0 0 1.5 0 3.333v23.334A3.332 3.332 0 0 0 3.333 30h23.334C28.5 30 30 28.5 30 26.667V3.333C30 1.5 28.5 0 26.667 0zM13.333 20h-2.5v-3.333H7.5V20H5V10h2.5v4.167h3.333V10h2.5v10zm3.334-10h6.666c.917 0 1.667.75 1.667 1.667v6.666C25 19.25 24.25 20 23.333 20h-6.666V10zm2.5 7.5H22.5v-5h-3.333v5z" fill="#fff"/></svg>
